X:1
T:Title
%%score { ( 1 3 ) | ( 2 4 ) }
L:1/8
Q:1/4=108
M:3/4
K:C
V:1 treble nm="Grand Piano"
V:3 treble 
V:2 treble 
V:4 treble 
V:1
 c4 c>c | c2 c2 c2 | d6 |[M:4/4] [Ec]6 [EG]2 |[M:3/4] [EG]2 [FA][DB] [Ec][Fd] | z2 z2 [Ge]2 | %6
w: Adam~Geibel * *||||||
 d2 e2 d2 | c2 z2 z2 | G2 AB cd | [Ee]4 [Ge]2 | [Gd]2 ed cA | G4 d2 | %12
w: ||||||
 [DAd]2 [Dd]-[DGd] [Dd]-[D^Fd] | [DGB]2 [DGd]2 [EAc]2 | [DGB]4 [^FA]2 | [B,G]4 z2 | G4 G>G | %17
w: |||||
 G4 z2 | B4 B>B | B4 z2 | f2 f2 f2 | e2 [Gc]2 [Ad]2 | [Ge]4 [Fd]2 | [Ec]6 |] %24
w: |||||||
V:2
 [CEG]4 [CEG]>[CEG] | [A,EA]2 [A,EA]2 [A,CE]2 | [G,F]6 |[M:4/4][K:bass] [C,C]6 [C,C]2 | %4
[M:3/4] [C,C]2 [C,C]2 [C,C]2 | [C,C]4 .[C,C]2 | [G,B,F]2 [G,B,G]2 [G,B,F]2 | z2 G2 C,2 | %8
 [G,B,F]2 [G,F]-[G,DF] [G,F]-[G,B,F] | [C,C]4 [C,C]2 | z2 z2 .A,2 | [G,B,]4 [G,B,G]2 | %12
 ^F,2 D,E, F,D, | G,2 B,,2 C,2 | z2 z2 C2 | G,4 z2 | G,4 G,>G, | G,4 z2 | [G,DF]4 [G,DF]>[G,DF] | %19
 [G,DF]4 z2 | [B,DG]2 [B,DG]2 [B,DG]2 | [CG]2[K:bass] [E,C]2 [F,C]2 | [G,B,]6 | [C,C]6 |] %24
V:3
 x6 | x6 | z2 z2 B,2 |[M:4/4] x8 |[M:3/4] x6 | [Ge]4 z E, | x6 | [CE]4 [CEG]2 | x6 | x6 | %10
 z2 ^F2 F2 | x6 | z2 .^F2 .A2 | x6 | x6 | x6 | x6 | x6 | x6 | x6 | x6 | x6 | x6 | x6 |] %24
V:4
 x6 | x6 | C4 z2 |[M:4/4][K:bass] x8 |[M:3/4] x6 | x6 | x6 | C,4 z2 | z2 .C2 .C2 | x6 | %10
 [D,B,]2 [D,C]2 D,-[D,C] | x6 | x6 | x6 | D,6 | x6 | x6 | x6 | x6 | x6 | x6 | x2[K:bass] x4 | x6 | %23
 x6 |] %24

